;Generated by Cura LulzBot Edition GCodeWriter Version: 3.6.36
;FLAVOR:Marlin
;TIME:1426
;Filament used: 0.25488m
;Layer height: 0.18
;Generated with Cura_SteamEngine 3.6.36-macos
M82 ;absolute extrusion mode
;This G-Code has been generated specifically for the LulzBot Mini 2 with SE 0.5mm Tool Head
;
;The following lines can be uncommented for printer specific fine tuning
;More information can be found at https://marlinfw.org/meta/gcode/
;
;M92 E420                 ;Set Axis Steps-per-unit
;M301 P21.0 I1.78 D61.93  ;Set Hotend PID
;M906 E960                ;TMC Motor Current
;
M73 P0                  ; clear GLCD progress bar
M75 					; Start GLCD Print Timer
G26 					; clear potential 'probe fail' condition
M107 					; disable fans
M420 S0                 ; disable leveling matrix
G90 					; absolute positioning
M82 					; set extruder to absolute mode
G92 E0 					; set extruder position to 0
M140 S60.0 ; start bed heating up
G28 					; home all axes
G0 X0 Y187 Z156 F200 			; move away from endstops
M117 Mini 2 Wiping...			; progress indicator message on LCD
M109 R140 	; soften filament before retraction
G1 E-15 F75 				; retract filament
M109 R140                  ; wait for extruder to reach wiping temp
;M206 X0 Y0 Z0              ; uncomment to adjust wipe position (+X ~ nozzle moves left)(+Y ~ nozzle moves forward)(+Z ~ nozzle moves down)
G12                         ; wiping sequence
M206 X0 Y0 Z0               ; reseting stock nozzle position ### CAUTION: changing this line can affect print quality ###
G28 X0 Y0				; home X and Y
M109 R140	; wait for extruder to reach probe temp
M204 S300				; set probing acceleration
G29					; start auto-leveling sequence
M420 S1                     ; enable leveling matrix
M425 Z			     		; use measured Z backlash for compensation
M425 Z F0		     		; turn off measured Z backlash compensation. (if activated in the quality settings, this command will automatically be ignored)
M204 S2000				; restore standard acceleration
G1 X5 Y15 Z10 F5000			; move up off last probe point
G4 S1					; pause
M400					; wait for moves to finish
M117 Heating...				; progress indicator message on LCD
M109 R210 ; wait for extruder to reach initial printing temp
M190 R60.0 ; wait for bed to reach printing temp
G1 Z2 E0 F75				; prime tiny bit of filament into the nozzle
M117 Mini 2 Printing...		; progress indicator message on LCD

M221 S100 T0
G92 E0
G1 F600 E-1.75
;LAYER_COUNT:136
;LAYER:0
M107
G0 F2625 X71.955 Y71.752 Z0.425
;TYPE:SKIRT
G1 F600 E0
G1 F900 X72.19 Y71.545 E0.01043
G1 X73.445 Y70.513 E0.06456
G1 X73.945 Y70.154 E0.08506
G1 X74.226 Y69.991 E0.09588
G1 X75.622 Y69.246 E0.14859
G1 X76.183 Y68.992 E0.1691
G1 X76.491 Y68.888 E0.17993
G1 X78.058 Y68.417 E0.23443
G1 X78.658 Y68.278 E0.25495
G1 X78.966 Y68.238 E0.2653
G1 X80.563 Y68.083 E0.31874
G1 X81.451 Y68.08 E0.34832
G1 X82.895 Y68.211 E0.39662
G1 X83.504 Y68.307 E0.41716
G1 X83.807 Y68.385 E0.42758
G1 X85.428 Y68.862 E0.48386
G1 X86.006 Y69.074 E0.50437
G1 X86.304 Y69.218 E0.5154
G1 X87.723 Y69.967 E0.56884
G1 X88.248 Y70.29 E0.58938
G1 X88.503 Y70.483 E0.60003
G1 X89.783 Y71.524 E0.65499
G1 X90.235 Y71.943 E0.67552
G1 X90.456 Y72.194 E0.68666
G1 X91.474 Y73.433 E0.74007
G1 X91.834 Y73.933 E0.7606
G1 X91.988 Y74.2 E0.77086
G1 X92.753 Y75.624 E0.82471
G1 X93.009 Y76.185 E0.84525
G1 X93.116 Y76.497 E0.85624
G1 X93.575 Y78.015 E0.90906
G1 X93.752 Y78.893 E0.9389
G1 X93.914 Y80.434 E0.99051
G1 X93.939 Y81.05 E1.01105
G1 X93.92 Y81.368 E1.02166
G1 X93.771 Y82.982 E1.07565
G1 X93.675 Y83.59 E1.09615
G1 X93.596 Y83.891 E1.10652
G1 X93.133 Y85.458 E1.16095
G1 X92.921 Y86.036 E1.18146
G1 X92.766 Y86.353 E1.19321
G1 X91.995 Y87.794 E1.24765
G1 X91.67 Y88.317 E1.26816
G1 X91.468 Y88.579 E1.27918
G1 X90.439 Y89.824 E1.33298
G1 X89.791 Y90.47 E1.36346
G1 X88.531 Y91.504 E1.41776
G1 X88.031 Y91.863 E1.43826
G1 X87.755 Y92.022 E1.44887
G1 X86.386 Y92.753 E1.50057
G1 X85.825 Y93.007 E1.52108
G1 X85.503 Y93.116 E1.5324
G1 X83.848 Y93.608 E1.58992
G1 X83.247 Y93.745 E1.61045
G1 X82.893 Y93.788 E1.62233
G1 X81.398 Y93.914 E1.6723
G1 X80.568 Y93.911 E1.69995
G1 X78.967 Y93.765 E1.7535
G1 X78.358 Y93.67 E1.77403
G1 X78.031 Y93.584 E1.7853
G1 X76.523 Y93.131 E1.83775
G1 X75.946 Y92.916 E1.85826
G1 X75.657 Y92.774 E1.86898
G1 X74.219 Y92.008 E1.92326
G1 X73.695 Y91.684 E1.94378
G1 X73.349 Y91.412 E1.95844
G1 X71.935 Y90.192 E2.02065
G1 X71.339 Y89.576 E2.0492
G1 X70.481 Y88.511 E2.09475
G1 X69.987 Y87.763 E2.12461
G1 X69.232 Y86.345 E2.17813
G1 X68.979 Y85.784 E2.19863
G1 X68.876 Y85.479 E2.20935
G1 X68.415 Y83.944 E2.26274
G1 X68.276 Y83.344 E2.28325
G1 X68.227 Y82.923 E2.29737
G1 X68.088 Y81.012 E2.36119
G1 X68.083 Y80.395 E2.38175
G1 X68.116 Y80.045 E2.39346
G1 X68.308 Y78.591 E2.44231
G1 X68.494 Y77.762 E2.47061
G1 X68.959 Y76.313 E2.5213
G1 X69.302 Y75.508 E2.55045
G1 X70.007 Y74.202 E2.59989
G1 X70.514 Y73.446 E2.63021
G1 X71.534 Y72.202 E2.6838
G1 X71.955 Y71.752 E2.70432
G0 F2625 X72.508 Y71.931
G1 F900 X73.763 Y70.899 E2.75845
G1 X74.461 Y70.433 E2.7864
G1 X75.857 Y69.688 E2.83911
G1 X76.635 Y69.367 E2.86715
G1 X78.202 Y68.896 E2.92165
G1 X79.014 Y68.736 E2.94922
G1 X80.611 Y68.581 E3.00267
G1 X81.406 Y68.578 E3.02915
G1 X82.85 Y68.709 E3.07744
G1 X83.666 Y68.865 E3.10512
G1 X85.287 Y69.342 E3.1614
G1 X86.071 Y69.66 E3.18959
G1 X87.49 Y70.409 E3.24303
G1 X88.188 Y70.871 E3.27092
G1 X89.468 Y71.912 E3.32587
G1 X90.07 Y72.511 E3.35416
G1 X91.088 Y73.75 E3.40758
G1 X91.548 Y74.437 E3.43512
G1 X92.313 Y75.861 E3.48896
G1 X92.637 Y76.642 E3.51713
G1 X93.096 Y78.16 E3.56995
G1 X93.255 Y78.946 E3.59667
G1 X93.417 Y80.487 E3.64828
G1 X93.422 Y81.322 E3.6761
G1 X93.273 Y82.936 E3.73009
G1 X93.117 Y83.749 E3.75766
G1 X92.654 Y85.316 E3.81209
G1 X92.325 Y86.117 E3.84094
G1 X91.554 Y87.558 E3.89537
G1 X91.083 Y88.261 E3.92356
G1 X90.054 Y89.506 E3.97736
G1 X89.474 Y90.083 E4.00462
G1 X88.214 Y91.117 E4.05891
G1 X87.52 Y91.581 E4.08672
G1 X86.151 Y92.312 E4.13841
G1 X85.36 Y92.637 E4.1669
G1 X83.705 Y93.129 E4.22441
G1 X82.851 Y93.29 E4.25336
G1 X81.356 Y93.416 E4.30334
G1 X80.613 Y93.413 E4.32809
G1 X79.012 Y93.267 E4.38164
G1 X78.175 Y93.105 E4.41004
G1 X76.667 Y92.652 E4.46249
G1 X75.892 Y92.333 E4.4904
G1 X74.454 Y91.567 E4.54468
G1 X73.96 Y91.258 E4.56408
G1 X73.676 Y91.034 E4.57613
G1 X72.262 Y89.814 E4.63834
G1 X71.728 Y89.262 E4.66393
G1 X70.87 Y88.197 E4.70948
G1 X70.429 Y87.528 E4.73617
G1 X69.674 Y86.11 E4.78968
G1 X69.355 Y85.335 E4.8176
G1 X68.894 Y83.8 E4.87099
G1 X68.765 Y83.232 E4.89039
G1 X68.725 Y82.886 E4.90199
G1 X68.586 Y80.975 E4.96582
G1 X68.612 Y80.111 E4.99461
G1 X68.804 Y78.657 E5.04346
G1 X68.97 Y77.914 E5.06882
G1 X69.435 Y76.465 E5.11952
G1 X69.742 Y75.745 E5.14559
G1 X70.447 Y74.439 E5.19503
G1 X70.901 Y73.763 E5.22215
G1 X71.921 Y72.519 E5.27574
G1 X72.508 Y71.931 E5.30341
G0 F2625 X72.825 Y72.318
G1 F900 X74.08 Y71.286 E5.35754
G1 X74.696 Y70.874 E5.38222
G1 X76.092 Y70.129 E5.43493
G1 X76.779 Y69.846 E5.45968
G1 X78.346 Y69.375 E5.51418
G1 X79.063 Y69.234 E5.53853
G1 X80.66 Y69.079 E5.59197
G1 X81.361 Y69.076 E5.61532
G1 X82.805 Y69.207 E5.66362
G1 X83.525 Y69.345 E5.68804
G1 X85.146 Y69.822 E5.74433
G1 X85.837 Y70.103 E5.76917
G1 X87.256 Y70.852 E5.82262
G1 X87.872 Y71.259 E5.84722
G1 X89.152 Y72.3 E5.90217
G1 X89.683 Y72.828 E5.92712
G1 X90.701 Y74.067 E5.98053
G1 X91.107 Y74.673 E6.00483
G1 X91.872 Y76.097 E6.05868
G1 X92.158 Y76.787 E6.08356
G1 X92.617 Y78.305 E6.13638
G1 X92.757 Y78.998 E6.15993
G1 X92.919 Y80.539 E6.21155
G1 X92.924 Y81.276 E6.2361
G1 X92.775 Y82.89 E6.29009
G1 X92.637 Y83.608 E6.31444
G1 X92.174 Y85.175 E6.36887
G1 X91.884 Y85.881 E6.39429
G1 X91.113 Y87.322 E6.44873
G1 X90.698 Y87.942 E6.47359
G1 X89.669 Y89.187 E6.52739
G1 X89.157 Y89.697 E6.55146
G1 X87.897 Y90.731 E6.60576
G1 X87.284 Y91.14 E6.6303
G1 X85.915 Y91.871 E6.682
G1 X85.218 Y92.158 E6.70711
G1 X83.563 Y92.65 E6.76462
G1 X82.809 Y92.792 E6.79018
G1 X81.314 Y92.918 E6.84015
G1 X80.658 Y92.916 E6.862
G1 X79.057 Y92.77 E6.91556
G1 X78.319 Y92.626 E6.9406
G1 X76.811 Y92.173 E6.99305
G1 X76.127 Y91.892 E7.01768
G1 X74.689 Y91.126 E7.07196
G1 X74.226 Y90.834 E7.09019
G1 X74.002 Y90.655 E7.09974
G1 X72.588 Y89.435 E7.16195
G1 X72.118 Y88.949 E7.18447
G1 X71.26 Y87.884 E7.23003
G1 X70.87 Y87.293 E7.25361
G1 X70.115 Y85.875 E7.30713
G1 X69.833 Y85.192 E7.33174
G1 X69.372 Y83.657 E7.38513
G1 X69.254 Y83.122 E7.40338
G1 X69.224 Y82.85 E7.41249
G1 X69.085 Y80.939 E7.47632
G1 X69.107 Y80.176 E7.50174
G1 X69.299 Y78.722 E7.5506
G1 X69.446 Y78.067 E7.57296
G1 X69.911 Y76.618 E7.62365
G1 X70.182 Y75.983 E7.64665
G1 X70.887 Y74.677 E7.69608
G1 X71.287 Y74.08 E7.72002
G1 X72.307 Y72.836 E7.77361
G1 X72.825 Y72.318 E7.79801
G0 F2625 X73.143 Y72.704
G1 F900 X74.398 Y71.672 E7.85213
G1 X74.932 Y71.315 E7.87353
G1 X76.328 Y70.57 E7.92624
G1 X76.922 Y70.325 E7.94764
G1 X78.489 Y69.854 E8.00215
G1 X79.111 Y69.731 E8.02327
G1 X80.708 Y69.576 E8.07671
G1 X81.316 Y69.574 E8.09697
G1 X82.76 Y69.705 E8.14526
G1 X83.383 Y69.824 E8.16639
G1 X85.004 Y70.301 E8.22268
G1 X85.604 Y70.545 E8.24425
G1 X87.023 Y71.294 E8.2977
G1 X87.557 Y71.647 E8.31902
G1 X88.837 Y72.688 E8.37398
G1 X89.297 Y73.146 E8.3956
G1 X90.315 Y74.385 E8.44902
G1 X90.667 Y74.91 E8.47007
G1 X91.432 Y76.334 E8.52392
G1 X91.68 Y76.931 E8.54545
G1 X92.139 Y78.449 E8.59828
G1 X92.26 Y79.05 E8.6187
G1 X92.422 Y80.591 E8.67031
G1 X92.426 Y81.23 E8.6916
G1 X92.277 Y82.844 E8.74559
G1 X92.158 Y83.466 E8.76669
G1 X91.695 Y85.033 E8.82111
G1 X91.444 Y85.645 E8.84315
G1 X90.673 Y87.086 E8.89759
G1 X90.312 Y87.623 E8.91914
G1 X89.283 Y88.868 E8.97294
G1 X88.84 Y89.31 E8.99379
G1 X87.58 Y90.344 E9.04808
G1 X87.049 Y90.699 E9.06936
G1 X85.68 Y91.43 E9.12106
G1 X85.075 Y91.678 E9.14284
G1 X83.42 Y92.17 E9.20035
G1 X82.767 Y92.294 E9.22249
G1 X81.272 Y92.42 E9.27247
G1 X80.704 Y92.418 E9.29139
G1 X79.103 Y92.272 E9.34494
G1 X78.463 Y92.148 E9.36665
G1 X76.955 Y91.695 E9.4191
G1 X76.362 Y91.45 E9.44047
G1 X74.924 Y90.684 E9.49475
G1 X74.329 Y90.277 E9.51876
G1 X72.915 Y89.057 E9.58097
G1 X72.507 Y88.635 E9.60052
G1 X71.649 Y87.57 E9.64608
G1 X71.311 Y87.058 E9.66651
G1 X70.556 Y85.64 E9.72003
G1 X70.312 Y85.048 E9.74135
G1 X69.851 Y83.513 E9.79474
G1 X69.723 Y82.814 E9.81841
G1 X69.584 Y80.903 E9.88224
G1 X69.603 Y80.242 E9.90426
G1 X69.795 Y78.788 E9.95312
G1 X69.922 Y78.22 E9.97251
G1 X70.387 Y76.771 E10.0232
G1 X70.622 Y76.22 E10.04315
G1 X71.327 Y74.914 E10.09259
G1 X71.674 Y74.397 E10.11333
G1 X72.694 Y73.153 E10.16691
G1 X73.143 Y72.704 E10.18807
G0 F2625 X75.382 Y75.381
;TYPE:SUPPORT
G1 F900 X76.592 Y74.385 E10.24027
G1 X77.957 Y73.656 E10.29182
G1 X79.443 Y73.207 E10.34353
G1 X81.034 Y73.051 E10.39678
G1 X81.116 Y73.051 E10.39951
G1 X82.5 Y73.191 E10.44585
G1 X84.061 Y73.668 E10.50022
G1 X85.41 Y74.39 E10.55118
G1 X86.624 Y75.386 E10.60349
G1 X87.615 Y76.595 E10.65556
G1 X88.346 Y77.962 E10.7072
G1 X88.794 Y79.442 E10.75871
G1 X88.805 Y79.509 E10.76097
G1 X88.949 Y80.926 E10.80841
G1 X88.949 Y81.096 E10.81408
G1 X88.815 Y82.434 E10.85887
G1 X88.791 Y82.572 E10.86353
G1 X88.353 Y84.024 E10.91405
G1 X87.601 Y85.431 E10.9672
G1 X86.598 Y86.639 E11.0195
G1 X85.401 Y87.623 E11.07111
G1 X84.031 Y88.354 E11.12284
G1 X82.536 Y88.801 E11.17482
G1 X82.462 Y88.817 E11.17734
G1 X81.107 Y88.949 E11.22269
G1 X80.964 Y88.949 E11.22745
G1 X79.449 Y88.8 E11.27816
G1 X77.972 Y88.355 E11.32954
G1 X76.58 Y87.612 E11.3821
G1 X75.388 Y86.63 E11.43355
G1 X74.441 Y85.489 E11.48294
G1 X74.383 Y85.405 E11.48634
G1 X73.648 Y84.022 E11.53851
G1 X73.201 Y82.541 E11.59004
G1 X73.177 Y82.418 E11.59421
G1 X73.051 Y81.125 E11.63749
G1 X73.051 Y80.878 E11.64572
G1 X73.181 Y79.56 E11.68983
G1 X73.2 Y79.456 E11.69335
G1 X73.65 Y77.966 E11.7452
G1 X74.388 Y76.589 E11.79724
G1 X75.382 Y75.381 E11.84935
G0 F2625 X76.353 Y76.376
G1 F900 X75.538 Y77.371 E11.89219
G1 X74.935 Y78.506 E11.93501
G1 X74.565 Y79.735 E11.97776
G1 X74.443 Y81.017 E12.02066
G1 X74.573 Y82.299 E12.06358
G1 X74.948 Y83.526 E12.10632
G1 X75.557 Y84.656 E12.14908
G1 X76.376 Y85.647 E12.1919
G1 X77.371 Y86.462 E12.23474
G1 X78.506 Y87.065 E12.27756
G1 X79.735 Y87.435 E12.32031
G1 X81.017 Y87.557 E12.36321
G1 X82.299 Y87.427 E12.40613
G1 X83.526 Y87.052 E12.44887
G1 X84.656 Y86.443 E12.49163
G1 X85.647 Y85.624 E12.53445
G1 X86.462 Y84.629 E12.57729
G1 X87.065 Y83.494 E12.62011
G1 X87.435 Y82.265 E12.66286
G1 X87.557 Y80.983 E12.70576
G1 X87.427 Y79.701 E12.74868
G1 X87.052 Y78.474 E12.79142
G1 X86.443 Y77.344 E12.83418
G1 X85.624 Y76.353 E12.877
G1 X84.629 Y75.538 E12.91984
G1 X83.494 Y74.935 E12.96266
G1 X82.265 Y74.565 E13.00541
G1 X80.983 Y74.443 E13.04831
G1 X79.701 Y74.573 E13.09123
G1 X78.474 Y74.948 E13.13397
G1 X77.344 Y75.557 E13.17673
G1 X76.353 Y76.376 E13.21955
G0 F2625 X75.844 Y76.682
G1 F900 X74.57 Y76.682 E13.26199
G0 F2625 X75.015 Y76.141
G1 F900 X75.015 Y77.929 E13.32155
G0 F2625 X74.791 Y78.349
G1 F900 X73.744 Y78.349 E13.35642
G0 F2625 X73.348 Y79.902
G1 F900 X73.348 Y82.115 E13.43014
G0 F2625 X73.653 Y83.35
G1 F900 X74.686 Y83.35 E13.46455
G0 F2625 X75.015 Y84.072
G1 F900 X75.015 Y85.867 E13.52434
G0 F2625 X75.598 Y85.017
G1 F900 X74.403 Y85.017 E13.56415
G0 F2625 X75.767 Y86.684
G1 F900 X77.363 Y86.684 E13.61731
G0 F2625 X76.682 Y86.156
G1 F900 X76.682 Y87.437 E13.65998
G0 F2625 X78.349 Y87.209
G1 F900 X78.349 Y88.259 E13.69496
G0 F2625 X78.652 Y88.351
G1 F900 X83.335 Y88.351 E13.85095
G0 F2625 X83.35 Y88.347
G1 F900 X83.35 Y87.314 E13.88536
G0 F2625 X84.629 Y86.684
G1 F900 X86.228 Y86.684 E13.93862
G0 F2625 X86.684 Y86.223
G1 F900 X86.684 Y84.638 E13.99142
G0 F2625 X86.402 Y85.017
G1 F900 X87.595 Y85.017 E14.03116
G0 F2625 X87.318 Y83.35
G1 F900 X88.347 Y83.35 E14.06543
G0 F2625 X88.351 Y83.338
G1 F900 X88.351 Y78.669 E14.22096
G0 F2625 X88.255 Y78.349
G1 F900 X87.211 Y78.349 E14.25574
G0 F2625 X86.684 Y77.371
G1 F900 X86.684 Y75.773 E14.30897
G0 F2625 X86.154 Y76.682
G1 F900 X87.43 Y76.682 E14.35147
G0 F2625 X85.857 Y75.015
G1 F900 X84.071 Y75.015 E14.41096
G0 F2625 X85.017 Y75.598
G1 F900 X85.017 Y74.407 E14.45064
G0 F2625 X83.35 Y74.682
G1 F900 X83.35 Y73.661 E14.48465
G0 F2625 X82.059 Y73.348
G1 F900 X80.059 Y73.348 E14.55127
G0 F2625 X80.016 Y73.352
G1 F900 X80.016 Y74.34 E14.58418
G0 F2625 X81.683 Y74.308
G1 F900 X81.683 Y73.31 E14.61742
G0 F2625 X78.349 Y73.746
G1 F900 X78.349 Y74.789 E14.65216
G0 F2625 X77.928 Y75.015
G1 F900 X76.141 Y75.015 E14.71169
G0 F2625 X76.682 Y74.569
G1 F900 X76.682 Y75.846 E14.75423
G0 F2625 X74.337 Y80.016
G1 F900 X73.337 Y80.016 E14.78754
G0 F2625 X73.306 Y81.683
G1 F900 X74.31 Y81.683 E14.82098
G1 F600 E13.07098
G0 F2625 X76.861 Y84.554
G0 X80.016 Y87.663
G1 F600 E14.82098
G1 F900 X80.016 Y88.654 E14.85399
G0 F2625 X81.683 Y88.692
G1 F900 X81.683 Y87.69 E14.88737
G0 F2625 X85.017 Y87.601
G1 F900 X85.017 Y86.402 E14.92731
G0 F2625 X87.692 Y81.683
G1 F900 X88.689 Y81.683 E14.96052
G0 F2625 X88.654 Y80.016
G1 F900 X87.66 Y80.016 E14.99363
G1 F600 E13.24363
;MESH:
G0 F2625 X84.722 Y79.461
G0 X81.777 Y77.131
G0 X81.796 Y77.033
;TYPE:WALL-INNER
G1 F600 E14.99363
G1 F900 X82.546 Y77.26 E15.01973
G1 X83.25 Y77.636 E15.04632
G1 X83.861 Y78.139 E15.07268
G1 X84.364 Y78.75 E15.09904
G1 X84.74 Y79.454 E15.12563
G1 X84.967 Y80.204 E15.15173
G1 X85.046 Y81 E15.17837
G1 X84.967 Y81.796 E15.20502
G1 X84.74 Y82.546 E15.23112
G1 X84.364 Y83.25 E15.25771
G1 X83.861 Y83.861 E15.28407
G1 X83.25 Y84.364 E15.31043
G1 X82.546 Y84.74 E15.33702
G1 X81.796 Y84.967 E15.36312
G1 X81 Y85.046 E15.38976
G1 X80.204 Y84.967 E15.41641
G1 X79.454 Y84.74 E15.44251
G1 X78.75 Y84.364 E15.4691
G1 X78.139 Y83.861 E15.49546
G1 X77.636 Y83.25 E15.52182
G1 X77.26 Y82.546 E15.54841
G1 X77.033 Y81.796 E15.57451
G1 X76.954 Y81 E15.60115
G1 X77.033 Y80.204 E15.6278
G1 X77.26 Y79.454 E15.6539
G1 X77.636 Y78.75 E15.68049
G1 X78.139 Y78.139 E15.70685
G1 X78.75 Y77.636 E15.73321
G1 X79.454 Y77.26 E15.7598
G1 X80.204 Y77.033 E15.7859
G1 X81 Y76.954 E15.81254
G1 X81.796 Y77.033 E15.83919
G0 F2625 X81.89 Y76.539
;TYPE:WALL-OUTER
G1 F900 X82.741 Y76.797 E15.86881
G1 X83.526 Y77.217 E15.89847
G1 X84.216 Y77.784 E15.92821
G1 X84.783 Y78.474 E15.95796
